www/assets/icons/format_quote.svg

<svg xmlns="http://www.w3.org/2000/svg" width="24" height="24" viewBox="0 0 24 24" fill='currentColor'><path d="M6 17h3l2-4V7H5v6h3zm8 0h3l2-4V7h-6v6h3z"/></svg>

<svg width="24" height="24" viewBox="0 0 24 24" xmlns="http://www.w3.org/2000/svg" fill='currentColor'><path d="M6 17H9L11 13V7H5V13H8L6 17ZM14 17H17L19 13V7H13V13H16L14 17Z"/></svg>
